!!!COM: Haydn, Franz Joseph
!!!OTL: String Quartet in C Major
!!!OPS: Opus 76
!!!ONM: No. 3
!!!OMD: Menuetto: Allegro
!!!OMV: 3
!!!SCT: H III:77
!!!SCA: Thematisch-bibliographisches Werkevererzeichnis (A. van Hoboken)
!!!YOR: Trautwein Edition
!!!ENC: Frances Bennion
!!!CDT: 1732/3/31/-1809/5/31/
!!!CNT: Oesterreich
!!!YEC: Copyright (c) 1994, 2000 Center for Computer Assisted Research in the Humanities
!!!YEM: Rights to all derivative editions reserved.
!!!YEM: Refer to licensing agreement for further details.
!!!YEN: United States of America
**kern	**kern	**kern	**kern
*k[]	*k[]	*k[]	*k[]
*C:	*C:	*C:	*C:
*clefF4	*clefC3	*clefF	*clefF
*M3/4	*M3/4	*M3/4	*M3/4
2r	2r	2r	2r
4r	4r	4r	4cc
=1	=1	=1	=1
2.r	2.r	2.r	4b
.	.	.	4cc
.	.	.	4ee
=2	=2	=2	=2
4c	4c	4e	2g
4c	4c	4e	.
4r	4r	4r	4cc
=3	=3	=3	=3
4F	4F	4A	2d
4F	4F	4A	.
4r	4r	4r	4a
=4	=4	=4	=4
4BB	2D	[2.G	4.G
4BB	.	.	.
.	.	.	8a
4BB	4d	.	8g
.	.	.	8f
=5	=5	=5	=5
2C	4d	4G]	4f
.	4c	2r	4e
4r	4r	.	4cc
=6	=6	=6	=6
4r	4r	2.r	4b
4r	4r	.	4cc
4A	4c	.	4ee
=7	=7	=7	=7
4G#	4B	4r	4f
4A	4c	4r	4e
4c	4e	4a	8a
.	.	.	8cc
=8	=8	=8	=8
4F#	4A	4cc	4ee
4G	4B	4b	4dd
4B	4g	4dd	4gg
=9	=9	=9	=9
4c	4a	2d	4ff#
4B	4b	.	4gg
4c	4a	4ee	4aa
=10	=10	=10	=10
4d	4b	2e	4gg#
4c	4cc	.	4aa
4A	4a	8ee	8ccc
.	.	8cc	8aa
=11	=11	=11	=11
2d	2dd	2b	2gg
4D	4d	8cc	8aa
.	.	8a	8ff#
=12	=12	=12	=12
4G	4g	4b	4gg
4G	4B	4d	4r
4G	4B	4d	16ff#
.	.	.	8.gg
=13	=13	=13	=13
4G	4B	4d	16cc#
.	.	.	8.dd
4G	4B	4d	16a#
.	.	.	8.b
4G	4B	4d	16f#
.	.	.	8.g
=14	=14	=14	=14
4G	4B	4d	2d
4G	4B	4d	.
4G	4B	4d	4g
=15	=15	=15	=15
4G	4c	4f#	4a
4G	4c	4f#	8a
.	.	.	8b
4G	4A	4f#	8cc
.	.	.	8dd
=16	=16	=16	=16
2G	2d	2g	4cc
.	.	.	4b
16FF#	4r	4gg	4bb
8.GG	.	.	.
=17	=17	=17	=17
16AA#	2.r	4dd	4gg
8.BB	.	.	.
16C#	.	4b	4dd
8.D	.	.	.
16F#	.	4g	4b
8.G	.	.	.
=18	=18	=18	=18
2B	2.r	2d	2g
4r	.	4r	8dd
.	.	.	8b
=19	=19	=19	=19
2.D	2.c	2.f#	4a
.	.	.	8a
.	.	.	8g
.	.	.	8a
.	.	.	8b
=20	=20	=20	=20
4G	4B	4g	4g
2r	2r	2r	4r
.	.	.	4dd
=21	=21	=21	=21
4r	2.r	2.r	4cc#
4r	.	.	4dd
4G	.	.	4ff
=22	=22	=22	=22
4A-	2.r	4r	4cc
4G	.	4r	4b
4E-	.	4g	[4gg
=23	=23	=23	=23
2c	2.r	2.a-	4gg]
.	.	.	4ee-
4D	.	.	[4ff
=24	=24	=24	=24
2B	4r	2.g	4ff]
.	4r	.	4dd
4C	4c	.	[4ee-
=25	=25	=25	=25
2.A-	4c	2.f#	4ee-]
.	4d	.	4dd
.	8e-	.	[4cc
.	8c	.	.
=26	=26	=26	=26
2G	2g	2g	4cc]
.	.	.	4b
4r	4B	4d	4g
=27	=27	=27	=27
4r	4c	4e-	4f#
4r	4B	4d	4g
4GG	4r	4B	4d
=28	=28	=28	=28
4FF#	4r	4c	4e-
4GG	4r	4B	4d
4r	4B	4d	4g
=29	=29	=29	=29
4r	4c	4e-	4f#
4r	4B	4d	4g
4GG	4r	4B	4d
=30	=30	=30	=30
4FF#	2.r	4c	4e-
4GG	.	4B	4d
4r	.	4d	4f
=31	=31	=31	=31
4r	4r	4c#	4e
4r	4r	4d	4f
4GG	4B	4r	4r
=32	=32	=32	=32
4AA-	4c	2.r	4r
4GG	4B	.	4r
4r	4r	.	4cc
=33	=33	=33	=33
2.r	2.r	2.r	4b
.	.	.	4cc
.	.	.	4ee
=34	=34	=34	=34
4c	4c	4e	2g
4c	4c	4e	.
4r	4r	4r	4cc
=35	=35	=35	=35
4F	4F	4A	2d
4F	4F	4A	.
4r	4r	4r	4a
=36	=36	=36	=36
4BB	2D	[2.G	4.G
4BB	.	.	.
.	.	.	8a
4BB	4d	.	8g
.	.	.	8f
=37	=37	=37	=37
2C	4d	4G]	4f
.	4c	4r	4e
4c	4r	4e	4r
=38	=38	=38	=38
4B	4r	4d#	4r
4c	4r	4e	4r
4e	4c	4g	[4cc
=39	=39	=39	=39
2G	2d	2f	4cc]
.	.	.	4b
4d	4r	4f	4r
=40	=40	=40	=40
4c#	4r	4e	4r
4d	4r	4f	4r
4f	4d	4a	[4dd
=41	=41	=41	=41
2A	2e	2g	4dd]
.	.	.	4cc#
4r	4r	4dd	4ff
=42	=42	=42	=42
4r	4r	4cc#	4ee
4r	4r	4dd	4ff
4d	4f	4ff	4aa
=43	=43	=43	=43
4c#	4e	4gg	4bb-
4d	4f	4ff	4aa
4f	4a	4dd	4ff
=44	=44	=44	=44
4B	4d	4ff	4aa
4c	4e	4ee	4gg
4E	4g	4cc	4ccc
=45	=45	=45	=45
4F	2G	4dd	4bb
4E	.	4ee	4ccc
4F	4a	4dd	4ddd
=46	=46	=46	=46
4G	2A	4ee	4ccc#
4F	.	4ff	4ddd
4D	4D	8aa	8fff
.	.	8ff	8ddd
=47	=47	=47	=47
2.G	2.G	2ee	2ccc
.	.	8ff	8ddd
.	.	8dd	8bb
=48	=48	=48	=48
4C	4G	4cc	4ccc
4C	4G	4e	4r
4C	4G	4e	16bb
.	.	.	8.ccc
=49	=49	=49	=49
4C	4G	4e	16ff#
.	.	.	8.gg
4C	4G	4e	16dd#
.	.	.	8.ee
4C	4G	4e	16b
.	.	.	8.cc
=50	=50	=50	=50
4C	4G	4e	2g
4C	4G	4e	.
4C	4e	4cc	4cc
=51	=51	=51	=51
4C	2f	2.b	4dd
4C	.	.	8dd
.	.	.	8ee
4C	4d	.	8ff
.	.	.	8gg
=52	=52	=52	=52
2C	4g	4cc	4ff
.	2r	4r	4ee
16BB	.	4ccc	4eee
8.C	.	.	.
=53	=53	=53	=53
16D#	2.r	4gg	4ccc
8.E	.	.	.
16F#	.	4ee	4gg
8.G	.	.	.
16B	.	4cc	4ee
8.c	.	.	.
=54	=54	=54	=54
2e	2.r	2g	2cc
4r	.	4r	8gg
.	.	.	8ee
=55	=55	=55	=55
2.GG	2.f	2.b	4dd
.	.	.	8dd
.	.	.	8cc
.	.	.	8dd
.	.	.	8ee
=56	=56	=56	=56
4C	4e	4cc	4cc
2r	2r	2r	4r
.	.	.	4e
=57	=57	=57	=57
2.r	2.r	2.r	2cc
.	.	.	4a
=58	=58	=58	=58
2.r	2.r	2.r	2f
.	.	.	4d
=59	=59	=59	=59
2.E	[2.E	2.G#	4B
.	.	.	8B
.	.	.	8c
.	.	.	8d
.	.	.	8e
=60	=60	=60	=60
4AA	4E]	4A	4c
2r	2r	2r	4A
.	.	.	4e
=61	=61	=61	=61
2.r	2.r	2.r	2cc
.	.	.	4a
=62	=62	=62	=62
2.r	2.r	2.r	2f
.	.	.	4e
=63	=63	=63	=63
2.BB	2.F#	2.A	4d#
.	.	.	8d#
.	.	.	8e
.	.	.	8f#
.	.	.	8d#
=64	=64	=64	=64
4EE	4E	4G#	4e
2r	2r	2r	4r
.	.	.	4e
=65	=65	=65	=65
2.r	2.r	2.r	2cc
.	.	.	4a
=66	=66	=66	=66
2.r	2.r	2.r	2f
.	.	.	4d
=67	=67	=67	=67
2.C#	2E	2G	4B-
.	.	.	8A
.	.	.	8c#
.	4A	8g	8e
.	.	8e	8g
=68	=68	=68	=68
2D	4A	4d	4f
.	2r	2r	4d
4r	.	.	4d
=69	=69	=69	=69
4r	2.r	2.r	2dd
4r	.	.	.
4DD	.	.	4b
=70	=70	=70	=70
2.D	4r	2.r	2g#
.	4r	.	.
.	4G#	.	4e
=71	=71	=71	=71
2.C	2e	2r	2a
.	4c	4A	4e
=72	=72	=72	=72
2.FF	4A	2.d#	4c
.	4B	.	4B
.	8c	.	4A
.	8A	.	.
=73	=73	=73	=73
[2.EE	4e	[2.e	4G#
.	2r	.	4B
.	.	.	4d#
=74	=74	=74	=74
2.EE_	2.r	2.e_	4e
.	.	.	4g#
.	.	.	4b
=75	=75	=75	=75
2.EE_	[2.E	2.e_	[2.ee
=76	=76	=76	=76
2EE]	2E]	2e]	2ee]
4r	4r	4r	4e
=77	=77	=77	=77
2.A	2.c#	2.e	2cc#
.	.	.	4a
=78	=78	=78	=78
2.r	2.r	2.r	4e
.	.	.	4r
.	.	.	4e
=79	=79	=79	=79
2.G#	2.B	2.e	2dd
.	.	.	4b
=80	=80	=80	=80
2.r	2.r	2.r	4e
.	.	.	4r
.	.	.	4e
=81	=81	=81	=81
2.A	2.r	4c#	4ee
.	.	4e	4cc#
.	.	4a	4a
=82	=82	=82	=82
2.D	2.r	4B	4ff#
.	.	4d	4dd
.	.	4f#	4b
=83	=83	=83	=83
[2.E	2.r	2.c#	2.a
=84	=84	=84	=84
4E]	2.r	4B	4g#
4D	.	2r	4r
4BB	.	.	4e
=85	=85	=85	=85
4AA	4r	[2.e	2cc#
2r	4r	.	.
.	4E	.	4a
=86	=86	=86	=86
2.r	2c#	2.e_	4e
.	.	.	4r
.	4A	.	4e
=87	=87	=87	=87
4GG#	4E	2.e_	2dd
2r	4r	.	.
.	4E	.	4b
=88	=88	=88	=88
2.r	2d	2.e]	4e
.	.	.	4r
.	4B	.	4e
=89	=89	=89	=89
2.CC#	4E	4A	4ee
.	2r	4e	4cc#
.	.	4a	4a
=90	=90	=90	=90
2.DD	4r	4B	4ff#
.	4r	4d	4dd
.	4F#	4f#	4b
=91	=91	=91	=91
2.EE	2E	2c#	2a
.	4G#	4d	4b
=92	=92	=92	=92
4AA	4A	4c#	4a
2r	2r	2r	4r
.	.	.	4e
=93	=93	=93	=93
2.r	2.r	2.r	2cc
.	.	.	4a
=94	=94	=94	=94
2.r	2.r	2.r	2f
.	.	.	4d
=95	=95	=95	=95
2.E	[2.E	2.G#	4B
.	.	.	8B
.	.	.	8c
.	.	.	8d
.	.	.	8e
=96	=96	=96	=96
4AA	4E]	4A	4c
2r	2r	2r	4A
.	.	.	4e
=97	=97	=97	=97
2.r	2.r	2.r	2cc
.	.	.	4a
=98	=98	=98	=98
2D	2F	2B-	2f
4D#	4F#	[4A	4A
=99	=99	=99	=99
2.E	[2.E	4A]	4c
.	.	4B	4d
.	.	4G#	4B
=100	=100	=100	=100
4AA	4E]	4A	4A
2r	2r	2r	2r
==	==	==	==
*-	*-	*-	*-
!!!RWG1: This file contains only pitch and duration data.
!!!RWG2: Transposing instruments are not transposed.
!!!RWG3: Spines may have incompatible meters.
!!!RWG4: Durations of rests and tied notes may be interpreted.
!!!RWG: Key is interpreted using the Humdrum key tool.
!!!GTL: 6 Quartetti ("Erdödy")
!!!OPT: Emperor
!!!AFT: stage1
!!!END: 1997/04/15
!!!KEY: 143589287
!!!EMD: Converted from MuseData to Humdrum Dec 16, 2000, by Andreas Kornstaedt using muse2kern.
!!!EMD: Manual editing by Craig Sapp, Nov 2001
